icons/cursor-circle-dashed.svg

<svg xmlns="http://www.w3.org/2000/svg" viewBox="0 0 24 24" fill="currentColor">
  <path d="M8.56078 7.45496c-.36055 0-.73962.11899-1.01251.3919-.27991.27992-.42337.71847-.24932 1.15551l1.52042 5.80523.03492.0699c.12576.2515.36684.5496.75757.6612.44444.127.85244-.0486 1.13234-.3286l1.5461-1.546 3.1893 3.0713c.2984.2873.7732.2783 1.0605-.02.2873-.2984.2783-.7732-.02-1.0605l-3.169-3.0516 1.6638-1.6638c.28-.28.4555-.688.3285-1.13242-.1116-.3907-.4097-.63177-.6612-.75751l-.0699-.03493-5.95493-1.55968h-.09659Zm3.19902 4.61834 1.7871-1.7871-4.68232-1.22638 1.22632 4.68228 1.6497-1.6497c.0063-.0065.0127-.0129.0192-.0191Z"/>
  <path d="M10.098 2.43557C10.7138 2.31375 11.3498 2.25 12 2.25c.6502 0 1.2862.06375 1.902.18557.4063.08038.6706.47495.5902.88129-.0804.40634-.475.67057-.8813.59019C13.0905 3.8041 12.5519 3.75 12 3.75c-.5519 0-1.0905.0541-1.6109.15705-.40635.08038-.80091-.18385-.8813-.59019-.08039-.40634.18385-.80091.5902-.88129Zm6.2793 1.6631c.2304-.3442.6963-.43642 1.0405-.20599 1.0629.71162 1.9779 1.62661 2.6895 2.68954.2304.3442.1382.81003-.206 1.04046-.3442.23044-.81.13822-1.0404-.20598-.6026-.9-1.3776-1.67503-2.2776-2.27756-.3442-.23044-.4364-.69627-.206-1.04047Zm-8.75462 0c.23044.3442.13822.81003-.20598 1.04047-.9.60253-1.67503 1.37756-2.27756 2.27756-.23044.3442-.69627.43642-1.04047.20599-.3442-.23044-.43642-.69627-.20599-1.04047.71162-1.06293 1.62661-1.97792 2.68954-2.68953.3442-.23044.81003-.13822 1.04046.20598ZM3.31686 9.5078c.40634.08039.67057.47495.59019.8813C3.8041 10.9095 3.75 11.4481 3.75 12c0 .5519.0541 1.0905.15705 1.6109.08038.4063-.18385.8009-.59019.8813-.40634.0804-.80091-.1839-.88129-.5902C2.31375 13.2862 2.25 12.6502 2.25 12c0-.6502.06375-1.2862.18557-1.902.08038-.40635.47495-.67059.88129-.5902Zm17.36624 0c.4064-.08039.8009.18385.8813.5902.1219.6158.1856 1.2518.1856 1.902 0 .6502-.0637 1.2862-.1856 1.902-.0804.4063-.4749.6706-.8813.5902-.4063-.0804-.6705-.475-.5901-.8813.1029-.5204.157-1.059.157-1.6109 0-.5519-.0541-1.0905-.157-1.6109-.0804-.40635.1838-.80091.5901-.8813Zm-.7818 6.8695c.3442.2304.4365.6963.206 1.0405-.7116 1.0629-1.6266 1.9779-2.6895 2.6895-.3442.2304-.8101.1382-1.0405-.206-.2304-.3442-.1382-.81.206-1.0404.9-.6026 1.675-1.3776 2.2776-2.2776.2304-.3442.6962-.4364 1.0404-.206Zm-15.80263 0c.3442-.2304.81003-.1382 1.04047.206.60253.9 1.37756 1.675 2.27756 2.2776.3442.2304.43642.6962.20599 1.0404-.23044.3442-.69627.4365-1.04047.206-1.06293-.7116-1.97792-1.6266-2.68953-2.6895-.23044-.3442-.13822-.8101.20598-1.0405Zm5.40913 4.3058c.08039-.4063.47495-.6705.8813-.5901.5204.1029 1.059.157 1.6109.157.5519 0 1.0905-.0541 1.6109-.157.4063-.0804.8009.1838.8813.5901.0804.4064-.1839.8009-.5902.8813-.6158.1219-1.2518.1856-1.902.1856-.6502 0-1.2862-.0637-1.902-.1856-.40635-.0804-.67059-.4749-.5902-.8813Z"/>
</svg>

<svg width="24" height="24" viewBox="0 0 24 24" fill="none" xmlns="http://www.w3.org/2000/svg">
<path fill-rule="evenodd" clip-rule="evenodd" d="M8.56078 7.45496C8.20023 7.45496 7.82116 7.57395 7.54827 7.84686C7.26836 8.12678 7.1249 8.56533 7.29895 9.00237L8.81937 14.8076L8.85429 14.8775C8.98005 15.129 9.22113 15.4271 9.61186 15.5387C10.0563 15.6657 10.4643 15.4901 10.7442 15.2101L12.2903 13.6641L15.4796 16.7354C15.778 17.0227 16.2528 17.0137 16.5401 16.7154C16.8274 16.417 16.8184 15.9422 16.5201 15.6549L13.3511 12.6033L15.0149 10.9395C15.2949 10.6595 15.4704 10.2515 15.3434 9.80708C15.2318 9.41638 14.9337 9.17531 14.6822 9.04957L14.6123 9.01464L8.65737 7.45496H8.56078ZM11.7598 12.0733L13.5469 10.2862L8.86458 9.05982L10.0909 13.7421L11.7406 12.0924C11.7469 12.0859 11.7533 12.0795 11.7598 12.0733Z" fill="black"/>
<path fill-rule="evenodd" clip-rule="evenodd" d="M10.098 2.43557C10.7138 2.31375 11.3498 2.25 12 2.25C12.6502 2.25 13.2862 2.31375 13.902 2.43557C14.3083 2.51595 14.5726 2.91052 14.4922 3.31686C14.4118 3.7232 14.0172 3.98743 13.6109 3.90705C13.0905 3.8041 12.5519 3.75 12 3.75C11.4481 3.75 10.9095 3.8041 10.3891 3.90705C9.98275 3.98743 9.58819 3.7232 9.5078 3.31686C9.42741 2.91052 9.69165 2.51595 10.098 2.43557ZM16.3773 4.09867C16.6077 3.75447 17.0736 3.66225 17.4178 3.89268C18.4807 4.6043 19.3957 5.51929 20.1073 6.58222C20.3377 6.92642 20.2455 7.39225 19.9013 7.62268C19.5571 7.85312 19.0913 7.7609 18.8609 7.4167C18.2583 6.5167 17.4833 5.74167 16.5833 5.13914C16.2391 4.9087 16.1469 4.44287 16.3773 4.09867ZM7.62268 4.09867C7.85312 4.44287 7.7609 4.9087 7.4167 5.13914C6.5167 5.74167 5.74167 6.5167 5.13914 7.4167C4.9087 7.7609 4.44287 7.85312 4.09867 7.62269C3.75447 7.39225 3.66225 6.92642 3.89268 6.58222C4.6043 5.51929 5.51929 4.6043 6.58222 3.89269C6.92642 3.66225 7.39225 3.75447 7.62268 4.09867ZM3.31686 9.5078C3.7232 9.58819 3.98743 9.98275 3.90705 10.3891C3.8041 10.9095 3.75 11.4481 3.75 12C3.75 12.5519 3.8041 13.0905 3.90705 13.6109C3.98743 14.0172 3.7232 14.4118 3.31686 14.4922C2.91052 14.5726 2.51595 14.3083 2.43557 13.902C2.31375 13.2862 2.25 12.6502 2.25 12C2.25 11.3498 2.31375 10.7138 2.43557 10.098C2.51595 9.69165 2.91052 9.42741 3.31686 9.5078ZM20.6831 9.5078C21.0895 9.42741 21.484 9.69165 21.5644 10.098C21.6863 10.7138 21.75 11.3498 21.75 12C21.75 12.6502 21.6863 13.2862 21.5644 13.902C21.484 14.3083 21.0895 14.5726 20.6831 14.4922C20.2768 14.4118 20.0126 14.0172 20.093 13.6109C20.1959 13.0905 20.25 12.5519 20.25 12C20.25 11.4481 20.1959 10.9095 20.093 10.3891C20.0126 9.98275 20.2768 9.58819 20.6831 9.5078ZM19.9013 16.3773C20.2455 16.6077 20.3378 17.0736 20.1073 17.4178C19.3957 18.4807 18.4807 19.3957 17.4178 20.1073C17.0736 20.3377 16.6077 20.2455 16.3773 19.9013C16.1469 19.5571 16.2391 19.0913 16.5833 18.8609C17.4833 18.2583 18.2583 17.4833 18.8609 16.5833C19.0913 16.2391 19.5571 16.1469 19.9013 16.3773ZM4.09867 16.3773C4.44287 16.1469 4.9087 16.2391 5.13914 16.5833C5.74167 17.4833 6.5167 18.2583 7.4167 18.8609C7.7609 19.0913 7.85312 19.5571 7.62269 19.9013C7.39225 20.2455 6.92642 20.3378 6.58222 20.1073C5.51929 19.3957 4.6043 18.4807 3.89269 17.4178C3.66225 17.0736 3.75447 16.6077 4.09867 16.3773ZM9.5078 20.6831C9.58819 20.2768 9.98275 20.0126 10.3891 20.093C10.9095 20.1959 11.4481 20.25 12 20.25C12.5519 20.25 13.0905 20.1959 13.6109 20.093C14.0172 20.0126 14.4118 20.2768 14.4922 20.6831C14.5726 21.0895 14.3083 21.484 13.902 21.5644C13.2862 21.6863 12.6502 21.75 12 21.75C11.3498 21.75 10.7138 21.6863 10.098 21.5644C9.69165 21.484 9.42741 21.0895 9.5078 20.6831Z" fill="black"/>
</svg>
